src/22/panel/network-wireless-secure-signal-none.svg

<svg xmlns="http://www.w3.org/2000/svg" width="22" height="22" version="1.1">
 <defs>
  <style id="current-color-scheme" type="text/css">
   .ColorScheme-Text { color:#dfdfdf; } .ColorScheme-Highlight { color:#4285f4; }
  </style>
 </defs>
 <path style="fill:currentColor" class="ColorScheme-Text" d="M 16 12 C 14.892 12 14 12.9109 14 14.03125 L 14 15 L 13 15 L 13 19 L 19 19 L 19 15 L 18 15 L 18 14.03125 C 18 12.91135 17.108 12 16 12 z M 16 13 C 16.554 13 17 13.4424 17 14 L 17 15 L 15 15 L 15 14 C 15 13.4424 15.446 13 16 13 z"/>
 <path style="opacity:0.3;fill:currentColor" class="ColorScheme-Text" d="M 11 4 C 7.9494 4 5.0806 5.0732 3 7 L 11 18 L 12 16.625 L 12 14 L 13.013672 14 C 13.033321 12.365092 14.356157 11 16 11 C 16.028821 11 16.055366 11.008932 16.083984 11.009766 L 19 7 C 16.919 5.0731 14.051 4 11 4 z"/>
</svg>

<svg height="22" width="22" xmlns="http://www.w3.org/2000/svg"><path style="marker:none" color="#bebebe" overflow="visible" fill="none" d="M0 22V0h22v22z"/><path d="M11.003 5C7.968 5 5.237 6.077 2.972 7.75l8.03 8.75.97-1.069v-1.428h1.013c.02-1.635 1.343-3 2.987-3l.017.002 2.983-3.287C16.715 6.065 14.014 5 11.002 5zm-.063 1c2.394 0 4.525.836 6.438 2.03l-6.438 7L4.565 8c1.901-1.18 4.006-2 6.375-2z" style="marker:none" color="#000" overflow="visible" fill="#bebebe"/><path d="M15.972 12.003c-1.108 0-2 .911-2 2.032v.968h-1v4h6v-4h-1v-.968c0-1.12-.892-2.032-2-2.032zm0 1c.554 0 1 .443 1 1v1h-2v-1c0-.557.446-1 1-1z" style="marker:none" color="#000" overflow="visible" fill="#bebebe"/></svg>
